!!!COM: Hindemith, Paul
!!!OTL: Sonata for Two Pianos, Four Hands
!!!OMV: Movement 2: Allegro
!!!example: 655
!!!work: Hin-77
!!!OMD-full: Allegro
!!!OMD: [Allegro]
**kern	**kern	**dynam	**kern	**kern	**dynam
*grp:A	*grp:A	*grp:A	*grp:B	*grp:B	*grp:B
*part2	*part2	*part2	*part1	*part1	*part1
*staff4	*staff3	*	*staff2	*staff1	*
*I"Piano II	*	*	*I"Piano I	*	*
*I'Pno. II	*	*	*I'Pno. I	*	*
*ICklav	*ICklav	*	*ICklav	*ICklav	*
*Ipiano	*Ipiano	*	*Ipiano	*Ipiano	*
*clefF4	*clefG2	*	*clefF4	*clefG2	*
*k[]	*k[]	*	*k[]	*k[]	*
*C:	*C:	*	*C:	*C:	*
*M2/2	*M2/2	*	*M2/2	*M2/2	*
*met(c|)	*met(c|)	*	*met(c|)	*met(c|)	*
*	*8va	*	*	*	*
=154	=154	=154	=154	=154	=154
!	!	!	!	!LO:TX:t=[[half]=120]	!
!	!LO:TX:t=[[half]=120]	!	!	!	!LO:DY:ed=brack
2r	(4ddd	p	1ryy	8ryy	4ryy
.	.	.	.	8ryy	.
.	8ggg)	.	.	4ryy	.
.	8r	.	.	.	.
*clefG2	*	*	*	*	*
(4b	[2gg [2ggg	.	.	8ryy	4ryy
.	.	.	.	8ryy	.
8ee)	.	.	.	8ryy	.
8r	.	.	.	8ryy	.
=155	=155	=155	=155	=155	=155
2ee	4gg] 4ggg]	.	8ryy	8ryy	.
.	.	.	8ryy	8ryy	.
.	(8aaaL	.	8ryy	4ryy	.
.	8gggJ	.	8ryy	.	.
2r	4ddd)	.	8ryy	4ryy	.
.	.	.	8ryy	.	.
.	4ccc	.	4ryy	8ryy	.
.	.	.	.	8ryy	.
=156	=156	=156	=156	=156	=156
2r	(8dddL	.	4ryy	8ryy	.
.	8fff	.	.	8ryy	.
.	8ggg)J	.	8ryy	8ryy	.
.	8r	.	8ryy	8ryy	.
(8bL	[2gg [2ggg	.	8ryy	2ryy	.
8dd	.	.	8ryy	.	.
8ee)J	.	.	8ryy	.	.
8r	.	.	8ryy	.	.
=157	=157	=157	=157	=157	=157
2ee	8ggL] 8ggg]	.	4ryy	8ryy	.
.	(8bbb-X	.	.	8ryy	.
.	8aaa-X	.	4ryy	8ryy	.
.	8gggJ	.	.	8ryy	.
2r	4ccc)	<	8ryy	8ryy	4ryy
.	.	.	8ryy	8ryy	.
.	4ddd	.	8ryy	4ryy	.
.	.	.	8ryy	.	.
=158	=158	=158	=158	=158	=158
2r	(8fffL	.	8ryy	4ryy	.
.	8bbb-X	.	8ryy	.	.
.	8eeee-X)J	.	4ryy	8ryy	.
.	8r	[	.	8ryy	4ryy
(8ccL	[2ccc [2cccc	.	4ryy	8ryy	.
8ff	.	.	.	8ryy	.
8bb-X)J	.	.	8ryy	8ryy	.
8r	.	.	8ryy	8ryy	.
=159	=159	=159	=159	=159	=159
(4.aa	8cccL] 8cccc]	.	8ryy	2ryy	.
.	(8aaa	.	8ryy	.	.
.	8fff	.	8ryy	.	.
8bb-X	8dddJ	.	8ryy	.	.
4.aa	4eeen)	>	4ryy	8ryy	4ryy
.	.	.	.	8ryy	.
.	(8eeeL	.	4ryy	8ryy	.
8aa-X	8gggJ	.	.	8ryy	.
=160	=160	=160	=160	=160	=160
4gg)	4eee)	.	8ryy	8ryy	.
.	.	.	8ryy	8ryy	.
8aanL	4eee	.	8ryy	4ryy	.
8eeJ	.	.	8ryy	.	.
2ff#X	2bb	]	8ryy	4ryy	4ryy
.	.	.	8ryy	.	.
.	.	.	8ryy	8ryy	.
.	.	.	8ryy	8ryy	.
*	*X8va	*	*	*	*
=	=	=	=	=	=
*-	*-	*-	*-	*-	*-
!!!system-decoration: [({(s1,s2)})][({(s3,s4)})]
!!!CDT: 1895/11/16-1963/12/28
!!!CBL: Hanau, Germany
!!!CDL: Frankfurt, Germany
!!!CNT: German
!!!AGN: Instrumental; Keyboard
!!!MCN:
!!!MDT: 1942/11/20
!!!MGN:
!!!MLC: New York, New York, United States of America
!!!MPD: 1942
!!!MPN: Dougherty, Celuis; Ruzicka, Vincenz
!!!ODT: 1942
!!!PDT: 1942
!!!excerpt-start-measure: 154
!!!excerpt-end-measure: 160
!!!excerpt-start-time: 2:46
!!!excerpt-end-time: 2:53
!!!excerpt-duration-sec: 7
!!!excerpt-time-signature: 2/2
!!!excerpt-tempo-beat: [half]
!!!excerpt-tempo-rate: [120]
!!!excerpt-meter-type: duple
!!!excerpt-beat-group: G2
!!!excerpt-beat-subgroup: G2
!!!experiment: 1
!!!EEV: 2020/07/28
!!!ONB: Converted from MusicXML on 2020/07/28
